lib/svgs/travel.svg

<?xml version="1.0" encoding="UTF-8" standalone="no"?>
<svg width="20px" height="20px" viewBox="0 0 20 20" version="1.1" xmlns="http://www.w3.org/2000/svg" xmlns:xlink="http://www.w3.org/1999/xlink">
    <defs></defs>
    <g id="Icons" stroke="none" stroke-width="1" fill="none" fill-rule="evenodd">
        <g id="Web" transform="translate(-385.000000, -890.000000)" fill="#000000">
            <g id="audit/travel" transform="translate(385.000000, 890.000000)">
                <path d="M17.8931,14.3752 L13.3761,7.8772 C13.2641,7.7152 13.0801,7.6192 12.8841,7.6192 C12.6871,7.6192 12.5031,7.7152 12.3911,7.8772 L12.0411,8.3802 L9.6501,4.9392 C9.4251,4.6162 8.8891,4.6162 8.6651,4.9392 L2.1071,14.3752 C1.9801,14.5582 1.9651,14.7982 2.0681,14.9962 C2.1721,15.1932 2.3771,15.3172 2.6001,15.3172 L17.4001,15.3172 C17.6231,15.3172 17.8281,15.1932 17.9321,14.9962 C18.0351,14.7982 18.0201,14.5582 17.8931,14.3752 L17.8931,14.3752 L17.8931,14.3752 L17.8931,14.3752 M8.8731,6.7422 L10.0851,11.1952 L8.0531,14.1182 L3.7481,14.1182 L8.8731,6.7422 L8.8731,6.7422 L8.8731,6.7422 L8.8731,6.7422 M10.9791,9.9092 L10.5521,8.3392 L11.3111,9.4312 L10.9791,9.9092 L10.9791,9.9092 L10.9791,9.9092 L10.9791,9.9092 M12.6131,9.6602 L13.8261,14.1182 L9.5151,14.1182 L12.6131,9.6602 L12.6131,9.6602 L12.6131,9.6602 L12.6131,9.6602 M15.0701,14.1182 L14.3091,11.3212 L16.2521,14.1182 L15.7151,14.1182 L15.0701,14.1182 L15.0701,14.1182 L15.0701,14.1182 L15.0701,14.1182" id="Shape"></path>
            </g>
        </g>
    </g>
</svg>

<svg xmlns="http://www.w3.org/2000/svg" viewBox="0 0 20 20">
    <path fill="#000" fill-rule="evenodd" d="M17.893 14.375l-4.517-6.498a.598.598 0 0 0-.985 0l-.35.503-2.39-3.44c-.226-.324-.762-.324-.986 0l-6.558 9.435a.603.603 0 0 0-.039.621.602.602 0 0 0 .532.321h14.8a.602.602 0 0 0 .532-.32.603.603 0 0 0-.039-.622m-9.02-7.633l1.212 4.453-2.032 2.923H3.748l5.125-7.376M10.98 9.91l-.427-1.57.76 1.092-.333.478m1.634-.249l1.213 4.458h-4.31l3.097-4.458m2.457 4.458l-.76-2.797 1.942 2.797H15.07"/>
</svg>
